X:1
T:The Auto Patrol.
T:The Auto Patrol.
T:MARCH AND TWO-STEP.
T:By RICHARD GOOSMAN.
T:Copyright, 1908, by Richard Goosman.
T:Copyright, 1908, by Richard Goosman.
T:Copyright, 1908, by Richard Goosman.
T:Copyright, 1908, by Richard Goosman.
C:By RICHARD GOOSMAN.
Z:Copyright, 1908, by Richard Goosman.
%%score { ( 1 3 ) | 2 }
L:1/8
Q:1/4=100
M:2/4
K:Bb
V:1 treble nm="Piano" snm="Pno."
V:3 treble 
V:2 bass 
V:1
"^INTRO." [Bb][Aa]/[Bb]/ [cc'][Bb] | [Aa] [Bb]2 [Gg] | [Ff][^F^f] [Gg][^G^g] | [Aa]2 [fac'f']2 |: %4
"^MARCH." [Bdb]2 [Ada]2 | [Ada]2 [Gdg]2 | [Fdf][Gdg] [Ada][Bdb] | [Beb]2 [Aea]2 | [cec']2 [Beb]2 | %9
 [Beb]2 [Aea]2 | F^F G[Ge] | [FBd]4 | [Bdb]2 [Ada]2 | [Ada]2 [Gdg]2 | F^F G[dfd'] | %15
 [cec']2 [Beb]2 | [G_dg]2 [Ada]2 | [B=db]2 [Fdf]2 | [Ff][^F^f] [Gg][Aa] | [Bb]2 [Bdfb]2 :: %20
 [Ae]2 [Aef]2 | [fad']2 [eac']2 | [dc'][db] [da][db] | [ff']4 | [Beb][Beb]/[Aea]/ [^Ge^g][Aea] | %25
 [ege']4 | [Gdg][Gdg]/[Fdf]/ [=E^c=e][Fdf] | [dfd']4 | [Ae]2 [Aef]2 | [fad']2 [eac']2 | %30
 [cc'][db] [da][db] | [^cg^c']4 | [dd'][Bb] [Aa][Gg] | [Ff][=E=e] [Ff]2 | %34
 [Ee][Ff]/[^F^f]/ [Gg][Aa] | [Bdb]2 [Bdfb]2 :|[K:Eb][M:2/4]!f!"^TRIO." B=A/B/ cB | =A B2 z | %38
 [Bb][Aa] [Ff][Dd] | [B,B]2 !>![Bdfb] [GB] ||!p! [Gc]2 [GB]2 | [Bg]2 [Be]2 | [Ae]2 [Ad]2- | %43
 [Ad]2 z2 | [Ac]2 [AB]2 | [Bda]2 [Bd]2 | [GBf]2 [GBe]2- | [GBe]2 z2 | [Gc]2 [GB]2 | [GBg]2 [GBe]2 | %50
 [Bd]2 [Bdf]2 | =e2 f2 | [eg][eg]/^f/ [eg][ea] | [e=a]f/g/ [e_a][e=a] | %54
 [db]!>![Bb]/!>![Bb]/ !>![Bb]!>![Bb] | !>![Bb]!>![Bb]!>![Bb]!>![Bb] | [Gc]2 [GB]2 | [Bg]2 [Be]2 | %58
 [Ae]2 [Ad]2- | [Ad]2 z2 | [Ac]2 [AB]2 | [Bda]2 [Bd]2 | [GBf]2 [GBe]2- | [GBe]2 z2 | [Gc]2 [GB]2 | %65
 [GBg]2 [GBe]2 | [Ad]2 c2 | B2 =A2 | BG/_A/ B=B | dc AF | EE/G/ B/E/G/B/ | [EGBe]2 z2 || G3 ^F/G/ | %73
 A2 G2 | A/GA/ GA/G/- | G2 !>![G=Bdg]2 | _B3 =A/B/ | =B2 _B2 | c/Bc/ Bc/=B/ | _B2 !>![Bdb]2 | %80
 !>!B !>!=B2 !>!B | !>!_B!>!F !>!B2 | !>![Bb] !>![=B=b]2 !>![Bb] | !>![_B_b]!>![Ff] !>![Bb]2 | %84
 !>![Bb] !>![Bb]3 | !>![cc']!>![dd'] !>![dd']2 | !>![ee']!>![ff']!>![dd']!>![cc'] | %87
 !>![=B=b]2 !>![_Bdf_b]2 || [cgc']2 [Bgb]2 | [gbg']2 [ege']2 | [eae']2 [dad']2- | [dad']2 z2 | %92
 [cac']2 [Bdb]2 | [ad'a']2 [dad']2 | [ff']2 [ege']2- | [ege']2 z2 | [cgc']2 [Bgb]2 | %97
 [gbg']2 [ege']2 | [dd']2 [ff']2 | [=e=e']2 [ff']2 |!8va(! [gg'][gg']/[^f^f']/ [gg'][aa'] | %101
 [=a=a'][ff']/[gg']/ [_a_a'][=a=a'] | [bd'b']!8va)![Bb]/[Bb]/ [Bb][Bb] | [Bb][Bb] [Bb][Bb] | %104
 [cgc']2 [Bgb]2 | [gbg']2 [ege']2 | [eae']2 [dad']2- | [dad']2 z2 | [cac']2 [Bdb]2 | %109
 [ad'a']2 [dad']2 | [ff']2 [ege']2- | [ege']2 z2 | [cgc']2 [Bgb]2 | [ff']2 [ee']2 | [dd']2 [cc']2 | %115
 [Bb]2 [=A=a]2 | [Bb][=A=a]/[Bb]/ [=B=b][cc'] | [dd'][cc'][Aa][Ff] | %118
 [EGBe][EGBe]/[EGBe]/ [EGBe][EGBe] | [EGBe][EGBe]/[EGBe]/ [EGBe][EGBe] | %120
 [EAce][EAce]/[EAce]/ [EAce][EAce] | [E_Ge][EGe]/[EGe]/ [EGe][EGe] | %122
 [E=GBe][EGBe]/[EGBe]/ [EGBe][EGBe] | [EABe] [DABd]2 [DABd] | [EGBe][EGBe]/[EGBe]/ [EGBe][EGBe] | %125
 [EGBe][EGBe]/[EGBe]/ [EGBe][EGBe] | [EAce][EAce]/[EAce]/ [EAce][EAce] | %127
 [E_Ge][EGe]/[EGe]/ [EGe][EGe] | [E=GBe][EGBe]/[EGBe]/ [EGBe][EGBe] | %129
 [Bdfb][Bdfb]/[Bdfb]/ [Bdfb][Bdfb] | [EGBe][EGBe]/[EGBe]/ [EGBe][EGBe] | [EGBe][EGBe][EGBe][EGBe] | %132
 [EGBe]2 z2 | [egbe']2 z2 | [EGBe]4- | [EGBe]2 z2 |] %136
V:2
 [B,,B,][A,,A,]/[B,,B,]/ [C,C][B,,B,] | [A,,A,] [B,,B,]2 [G,,G,] | %2
 [F,,F,][^F,,^F,] [G,,G,][^G,,^G,] | [A,,A,]2 [F,,F,]2 |: B,,[F,B,D] F,,[F,B,D] | %5
 B,,[F,B,D] F,,[F,B,D] | B,,[F,B,D] F,,[F,B,D] | C,[F,A,E] F,,[F,CE] | [F,,F,][F,A,E] F,,[F,A,E] | %9
 C,[F,A,E] F,,[F,CE] | [F,,F,][E,,E,] [D,,D,][C,,C,] | [B,,,B,,][F,,,F,,][G,,,G,,][A,,,A,,] | %12
 [B,,,B,,][F,B,D] F,,[F,B,D] | B,,[F,B,D] F,,[F,B,D] | B,,[F,B,D] =B,,[G,=B,F] | %15
 E,[G,CE] [G,,G,][G,CE] | [=E,,=E,][B,_D=E] [E,,E,][B,DE] | [G,,F,][F,B,D] [D,,D,][F,B,D] | %18
 [F,,F,][E,,E,] [D,,D,][C,,C,] | [B,,,B,,]2 [B,,F,B,]2 :: C,[F,CE] F,,[F,CE] | C,[F,CE] F,,[F,CE] | %22
 B,,[F,B,D] F,,[F,B,D] | B,,[F,B,D] F,,[F,B,D] | C,[F,CE] F,,[F,CE] | C,[F,CE] F,,[F,CE] | %26
 B,,[F,B,D] F,,[F,B,D] | [B,,,B,,][B,,B,] [A,,A,][G,,G,] | C,[F,CE] F,,[F,CE] | %29
 C,[F,CE] F,,[F,CE] | B,,[F,B,D] F,,[F,B,D] | [=E,,=E,][G,B,_D=E] [G,B,DE]2 | %32
 [D,D][B,,B,] [A,,A,][G,,G,] | [F,,F,][=E,,=E,] [F,,F,]2 | [F,,,F,,][F,A,E] [F,,F,][F,A,E] | %35
 [B,,B,][F,,F,] [B,,,B,,]2 :|[K:Eb][M:2/4] B,=A,/B,/ CB, | =A, B,2 z | %38
 [B,,B,][A,,A,] [F,,F,][D,,D,] | [B,,,B,,]2 !>![B,,,B,,] z || E,[G,B,E] G,[B,E] | %41
 E,[G,B,E] G,[B,E] | F,[A,B,D] B,,[A,B,D] | F,[B,,B,][=A,,=A,][B,,B,] | B,,[A,B,D] D,[A,B,D] | %45
 F,[A,B,D] B,,[A,B,D] | E,[G,B,E] B,,[G,B,E] | E,!>![B,,B,]!>![C,C]!>![B,,B,] | E,[G,B,E] G,[B,E] | %49
 E,[G,B,E] G,[G,B,E] | F,[B,D] B,,[F,B,D] | F,[B,D] B,,[F,B,D] | C,[F,=A,E] F,,[F,A,E] | %53
 C,[F,=A,E] F,,[F,A,E] | [B,,B,]!>![B,,B,]/!>![B,,B,]/ !>![B,,B,]!>![B,,B,] | %55
 !>![B,,B,]!>![_A,,_A,]!>![G,,G,]!>![F,,F,] | E,[G,B,E] G,[B,E] | E,[G,B,E] G,[B,E] | %58
 F,[A,B,D] B,,[A,B,D] | F,[B,,B,][=A,,=A,][B,,B,] | B,,[A,B,D] D,[A,B,D] | F,[A,B,D] B,,[A,B,D] | %62
 E,[G,B,E] B,,[G,B,E] | E,!>![B,,B,]!>![C,C]!>![B,,B,] | E,[G,B,E] G,[B,E] | E,[G,B,E] G,[B,E] | %66
 A,[CE] =A,[CE_G] | B,[E=G] C,[=A,CE] | F,[_A,B,D] B,,[A,B,D] | F,[A,B,D] B,,[A,B,D] | %70
 [E,,E,][C,,C,] [B,,,B,,][G,,,G,,] | [E,,,E,,]2 z2 || G,3 ^F,/G,/ | A,2 G,2 | A,/G,A,/ G,A,/G,/- | %75
 G,2 !>![G,=B,D]2 | _B,3 =A,/B,/ | =B,2 _B,2 | C/B,C/ B,C/=B,/ | _B,2 !>![B,,B,]2 | %80
 !>!B, !>!=B,2 !>!B, | !>!_B,!>!F, !>!B,2 | !>![B,,B,] !>![=B,,=B,]2 !>![B,,B,] | %83
 !>![_B,,_B,]!>![F,,F,] !>![B,,B,]2 | !>![B,,B,] !>![B,,B,]3 | !>![C,C]!>![D,D] !>![D,D]2 | %86
 !>![E,E]!>![F,F]!>![D,D]!>![C,C] | !>![=B,,=B,]2 !>![_B,,_B,]2 || [E,,E,][G,B,E] [G,,G,][G,B,E] | %89
 [E,,E,][G,B,E] [G,,G,][G,B,E] | [F,,F,][F,A,B,D] [B,,,B,,][F,A,B,D] | %91
 [F,,F,][B,,B,] [=A,,=A,][B,,B,] | [B,,,B,,][F,_A,B,D] [F,,F,][F,A,B,D] | %93
 [B,,,B,,][F,A,B,D] [F,,F,][F,A,B,D] | [E,,E,][G,B,E] [G,,G,][G,B,E] | [G,,G,][B,,B,][C,C][B,,B,] | %96
 [E,,E,][G,B,E] [G,,G,][G,B,E] | [E,,E,][G,B,E] [G,,G,][G,B,E] | [F,,F,][F,B,D] [D,,D,][F,B,D] | %99
 [B,,,B,,][F,B,D] [D,,D,][F,B,D] | [E,,E,][G,B,E] [E,,E,][G,B,E] | [F,,F,][F,=A,E] [F,,F,][F,CE] | %102
 [B,,B,][B,,B,]/[B,,B,]/ [B,,B,][B,,B,] | [B,,B,][_A,,_A,][G,,G,][F,,F,] | %104
 [E,,E,][G,B,E] [G,,G,][G,B,E] | [E,,E,][G,B,E] [G,,G,][G,B,E] | %106
 [F,,F,][F,A,B,D] [B,,,B,,][F,A,B,D] | [F,,F,][B,,B,] [=A,,=A,][B,,B,] | %108
 [B,,,B,,][F,_A,B,D] [F,,F,][F,A,B,D] | [B,,,B,,][F,A,B,D] [F,,F,][F,A,B,D] | %110
 [E,,E,][G,B,E] [G,,G,][G,B,E] | [G,,G,][B,,B,][C,C][B,,B,] | [E,,E,][G,B,E] [G,,G,][G,B,E] | %113
 [E,,E,][G,B,E] G,[G,B,E] | [A,,A,][A,CF] [=A,,=A,][A,CE^F] | [B,,B,][B,EG] [C,C][=A,CE] | %116
 [D,,D,][F,_A,B,D] [F,,F,][F,A,B,D] | [B,,,B,,][F,A,B,D] [F,,F,][F,A,B,D] | %118
 !>![E,,E,]3 !>![E,,E,] | !>![_D,,_D,]3 !>![D,,D,] | !>![C,,C,]3 !>![C,,C,] | %121
 !>![=B,,,=B,,]3 !>![B,,,B,,] | !>![_B,,,_B,,]4 | !>![B,,,B,,] !>![B,,,B,,]2 !>![B,,,B,,] | %124
 !>![E,,E,]3 !>![E,,E,] | !>![_D,,_D,]3 !>![D,,D,] | !>![C,,C,]3 !>![C,,C,] | %127
 !>![=B,,,=B,,]3 !>![B,,,B,,] | !>![_B,,,_B,,]4 | !>![B,,,B,,]4 | !>![E,,E,]3 !>![C,,C,] | %131
 !>![B,,,B,,]2 !>![G,,,G,,]2 | !>![E,,,E,,]2 z2 | [E,G,B,E]2 z2 | [E,,B,,E,]4- | [E,,B,,E,]2 z2 |] %136
V:3
 x4 | x4 | x4 | x4 |: x4 | x4 | x4 | x4 | x4 | x4 | x4 | x4 | x4 | x4 | x4 | x4 | x4 | x4 | x4 | %19
 x4 :: x4 | x4 | x4 | z [bd']z[bd'] | x4 | x4 | x4 | x4 | x4 | x4 | x4 | x4 | x4 | x4 | x4 | x4 :| %36
[K:Eb][M:2/4] x4 | x4 | x4 | x4 || x4 | x4 | x4 | x4 | x4 | x4 | x4 | x4 | x4 | x4 | x4 | x4 | x4 | %53
 x4 | x4 | x4 | x4 | x4 | x4 | x4 | x4 | x4 | x4 | x4 | x4 | x4 | x4 | x4 | x4 | x4 | x4 | x4 || %72
 x4 | x4 | x4 | x4 | x4 | x4 | x4 | x4 | x4 | x4 | x4 | x4 | x4 | x4 | x4 | x4 || x4 | x4 | x4 | %91
 x4 | x4 | x4 | x4 | x4 | x4 | x4 | x4 | x4 |!8va(! x4 | x4 | x!8va)! x3 | x4 | x4 | x4 | x4 | x4 | %108
 x4 | x4 | x4 | x4 | x4 | x4 | x4 | x4 | x4 | x4 | x4 | x4 | x4 | x4 | x4 | x4 | x4 | x4 | x4 | %127
 x4 | x4 | x4 | x4 | x4 | x4 | x4 | x4 | x4 |] %136

